humanity-icon-theme/Humanity/actions/16/window-new.svg

<?xml version="1.0" encoding="UTF-8" standalone="no"?>
<!-- Created with Inkscape (http://www.inkscape.org/) -->

<svg
   xmlns:svg="http://www.w3.org/2000/svg"
   xmlns="http://www.w3.org/2000/svg"
   xmlns:xlink="http://www.w3.org/1999/xlink"
   version="1.0"
   width="16"
   height="16"
   id="svg4375">
  <defs
     id="defs4377">
    <linearGradient
       id="linearGradient3690">
      <stop
         id="stop3692"
         style="stop-color:white;stop-opacity:1"
         offset="0" />
      <stop
         id="stop3694"
         style="stop-color:white;stop-opacity:0.46875"
         offset="1" />
    </linearGradient>
    <linearGradient
       id="linearGradient2781">
      <stop
         id="stop2783"
         style="stop-color:#505050;stop-opacity:1"
         offset="0" />
      <stop
         id="stop6301"
         style="stop-color:#6e6e6e;stop-opacity:1"
         offset="0.13216467" />
      <stop
         id="stop2785"
         style="stop-color:#8c8c8c;stop-opacity:1"
         offset="1" />
    </linearGradient>
    <linearGradient
       id="linearGradient6457">
      <stop
         id="stop6459"
         style="stop-color:white;stop-opacity:0.94117647"
         offset="0" />
      <stop
         id="stop6461"
         style="stop-color:white;stop-opacity:0.70588237"
         offset="1" />
    </linearGradient>
    <linearGradient
       x1="24"
       y1="13"
       x2="24"
       y2="40"
       id="linearGradient5509"
       xlink:href="#linearGradient6457"
       gradientUnits="userSpaceOnUse"
       gradientTransform="matrix(0.3421052,0,0,0.2962964,-0.7105261,2.1481478)" />
    <linearGradient
       x1="16.033964"
       y1="9.0734701"
       x2="16.075121"
       y2="15.044087"
       id="linearGradient5512"
       xlink:href="#linearGradient3690"
       gradientUnits="userSpaceOnUse"
       gradientTransform="matrix(0.3871119,0,0,0.3793266,-2.1777999,-1.1038413)" />
    <linearGradient
       x1="21.866402"
       y1="8.5763302"
       x2="21.780495"
       y2="39.923653"
       id="linearGradient5515"
       xlink:href="#linearGradient2781"
       gradientUnits="userSpaceOnUse"
       gradientTransform="matrix(0.4242513,0,0,0.4262396,-3.1062892,-2.3363119)" />
    <linearGradient
       id="linearGradient3945">
      <stop
         id="stop3947"
         style="stop-color:#ecf5b6;stop-opacity:1"
         offset="0" />
      <stop
         id="stop3949"
         style="stop-color:#9fba48;stop-opacity:1"
         offset="1" />
    </linearGradient>
    <linearGradient
       x1="24.103895"
       y1="15.168831"
       x2="24.103895"
       y2="32.485161"
       id="linearGradient6430"
       xlink:href="#linearGradient3945"
       gradientUnits="userSpaceOnUse"
       gradientTransform="matrix(0.3280315,0,0,0.3257096,4.4449638,4.5320242)" />
  </defs>
  <g
     id="g6441">
    <rect
       width="14.000307"
       height="13.000307"
       x="0.49984658"
       y="1.4998463"
       id="rect1887"
       style="fill:url(#linearGradient5515);fill-opacity:1;stroke:#565853;stroke-width:0.99969316;stroke-linejoin:round;stroke-miterlimit:4;stroke-opacity:1;stroke-dasharray:none" />
    <rect
       width="12.000473"
       height="11.000473"
       x="1.4997636"
       y="2.4997635"
       id="rect2779"
       style="opacity:0.2;fill:none;stroke:url(#linearGradient5512);stroke-width:0.99952716;stroke-miterlimit:4;stroke-opacity:1;stroke-dasharray:none" />
    <rect
       width="13"
       height="8"
       x="1"
       y="6"
       id="rect6287"
       style="fill:url(#linearGradient5509);fill-opacity:1;stroke:none" />
    <path
       d="M 13,4.2500003 C 13.000178,4.664161 12.664339,5 12.25,5 11.835658,5 11.499819,4.664161 11.5,4.2500003 11.499819,3.8358394 11.835658,3.5 12.25,3.5 c 0.414339,0 0.750178,0.3358394 0.75,0.7500003 l 0,0 z"
       id="path6293"
       style="fill:#ffc24c;fill-opacity:1;stroke:none" />
    <path
       d="M 11,4.2500003 C 11.000178,4.664161 10.664339,5 10.25,5 9.8356581,5 9.4998191,4.664161 9.5000001,4.2500003 9.4998191,3.8358394 9.8356581,3.5 10.25,3.5 c 0.414339,0 0.750178,0.3358394 0.75,0.7500003 l 0,0 z"
       id="path6302"
       style="fill:#ffc24c;fill-opacity:1;stroke:none" />
    <path
       d="M 9.0000001,4.2500003 C 9.0001781,4.664161 8.6643391,5 8.2500001,5 7.8356581,5 7.4998191,4.664161 7.5000001,4.2500003 7.4998191,3.8358394 7.8356581,3.5 8.2500001,3.5 c 0.414339,0 0.750178,0.3358394 0.75,0.7500003 l 0,0 z"
       id="path6304"
       style="fill:#ffc24c;fill-opacity:1;stroke:none" />
    <path
       d="m 10.5,10.499999 0,-1.9924678 3,0 0,1.9924678 1.992468,0 0,3.000001 -1.992468,0 0,1.992468 -3,0 0,-1.992468 -1.9924682,0 0,-3.000001 1.9924682,0 z"
       id="path6678"
       style="fill:url(#linearGradient6430);fill-opacity:1;fill-rule:evenodd;stroke:#699536;stroke-width:1.01506352;stroke-linecap:butt;stroke-linejoin:round;stroke-miterlimit:4;stroke-opacity:1;stroke-dasharray:none;display:inline" />
  </g>
</svg>

<?xml version="1.0" encoding="UTF-8" standalone="no"?>
<!-- Created with Inkscape (http://www.inkscape.org/) -->
<svg id="svg4375" xmlns="http://www.w3.org/2000/svg" height="16" width="16" version="1.0" xmlns:xlink="http://www.w3.org/1999/xlink">
 <defs id="defs4377">
  <linearGradient id="linearGradient5509" y2="40" gradientUnits="userSpaceOnUse" x2="24" gradientTransform="matrix(.34211 0 0 .29630 -.71053 2.1481)" y1="13" x1="24">
   <stop id="stop6459" style="stop-color:#fff;stop-opacity:.94118" offset="0"/>
   <stop id="stop6461" style="stop-color:#fff;stop-opacity:.70588" offset="1"/>
  </linearGradient>
  <linearGradient id="linearGradient5512" y2="15.044" gradientUnits="userSpaceOnUse" x2="16.075" gradientTransform="matrix(.38711 0 0 .37933 -2.1778 -1.1038)" y1="9.0735" x1="16.034">
   <stop id="stop3692" style="stop-color:#fff" offset="0"/>
   <stop id="stop3694" style="stop-color:#fff;stop-opacity:.46875" offset="1"/>
  </linearGradient>
  <linearGradient id="linearGradient5515" y2="39.924" gradientUnits="userSpaceOnUse" x2="21.78" gradientTransform="matrix(.42425 0 0 .42624 -3.1063 -2.3363)" y1="8.5763" x1="21.866">
   <stop id="stop2783" style="stop-color:#505050" offset="0"/>
   <stop id="stop6301" style="stop-color:#6e6e6e" offset=".13216"/>
   <stop id="stop2785" style="stop-color:#8c8c8c" offset="1"/>
  </linearGradient>
  <linearGradient id="linearGradient6430" y2="32.485" gradientUnits="userSpaceOnUse" x2="24.104" gradientTransform="matrix(.32803 0 0 .32571 4.445 4.532)" y1="15.169" x1="24.104">
   <stop id="stop3947" style="stop-color:#ecf5b6" offset="0"/>
   <stop id="stop3949" style="stop-color:#9fba48" offset="1"/>
  </linearGradient>
 </defs>
 <g id="g6441">
  <rect id="rect1887" style="stroke-linejoin:round;stroke:#565853;stroke-width:.99969;fill:url(#linearGradient5515)" height="13" width="14" y="1.4998" x=".49985"/>
  <rect id="rect2779" style="opacity:.2;stroke:url(#linearGradient5512);stroke-width:.99953;fill:none" height="11" width="12" y="2.4998" x="1.4998"/>
  <rect id="rect6287" style="fill:url(#linearGradient5509)" height="8" width="13" y="6" x="1"/>
  <path id="path6293" style="fill:#ffc24c" d="m13 4.25c0 0.4142-0.336 0.75-0.75 0.75s-0.75-0.3358-0.75-0.75 0.336-0.75 0.75-0.75c0.41434 0 0.75018 0.33584 0.75 0.75z"/>
  <path id="path6302" style="fill:#ffc24c" d="m11 4.25c0 0.4142-0.336 0.75-0.75 0.75-0.4143 0-0.7502-0.3358-0.75-0.75-0.0002-0.4142 0.3357-0.75 0.75-0.75 0.41434 0 0.75018 0.33584 0.75 0.75z"/>
  <path id="path6304" style="fill:#ffc24c" d="m9 4.25c0.0002 0.4142-0.3357 0.75-0.75 0.75s-0.7502-0.3358-0.75-0.75c-0.0002-0.4142 0.3357-0.75 0.75-0.75 0.41434 0 0.75018 0.33584 0.75 0.75z"/>
  <path id="path6678" style="stroke-linejoin:round;fill-rule:evenodd;stroke:#699536;stroke-width:1.0151;fill:url(#linearGradient6430)" d="m10.5 10.5v-1.9925h3v1.9925h1.9925v3h-1.9925v1.9925h-3v-1.9925h-1.9925v-3h1.9925z"/>
 </g>
</svg>
